X:14886
%10049
T:Madocsai Tancok
O:Hungary
P:AB
L:1/8
M:2/4
K:Am
P:A
Q:1/4=96
z2 E,/2F,/2E,/2F,/2|"C".G,2 .C2|"Am".A,2 "C".C2| "C"G,A,G,F,| E,4|\
CB, "Am"A,2| "C"G,F, E,2| G,A,G,F,| E,2 E,/2F,/2E,/2F,/2|
|: .G,2 .C2|"Am".A,2 "C".C2| G,A,G,F,| E,4|\
"F".F,2 "Am".A,2| "C".G,2 CD |ECCB,| C4|
"C"E2 "Gm"D/2E/2D/2E/2| CE E2|"Gm".D2 "C".C2| "Em"B,4|\
"F"FA "Am"A2| "C"EG G2| "Dm"DF "F"F2| "C"E2 E,/2F,/2E,/2F,/2 :| 
"C".G,2 .C2|"Am".A,2 "C".C2| 
